X: 081973
T: Hills of Tipperary
S: "Roche Collection of Traditional Irish Music" [III/36/115]
L: 1/8
M: 9/8
R: slip jig
K: D
(3A/B/c/ |: dcB AGF ABc | dcd efg fge | 
dcB AGF ABc |1 dcB ABG FED :|2 d2D DAG FED ||
F2A AFA AFA | G2B BGB BGB |
F2A AFA ABc |1 dcB ABG FED :|2 d2D DAG FED ||
FGA ABc dcd | e2E E2F GFE | 
FED AGF ABc |1 dcB ABG FED :|2 d2D DAG FED ||
